src/assets/img/providers-white/spinomenal.svg

<svg width="140" height="22" viewBox="0 0 140 22" fill="none" xmlns="http://www.w3.org/2000/svg">
<path fill-rule="evenodd" clip-rule="evenodd" d="M34.7949 10.162C35.6383 10.294 36.4671 10.5067 37.2699 10.7972C39.1949 11.559 39.6871 11.9632 39.7889 13.5307C39.8906 15.6152 38.0041 16.2119 37.3854 16.4072C35.5662 16.9774 33.609 16.9262 31.8221 16.2614C31.1021 16.0258 30.4869 15.5464 30.0823 14.9059C29.6777 14.2654 29.5092 13.5039 29.6056 12.7524C29.6146 12.6719 29.6548 12.5981 29.7174 12.5467C29.7801 12.4954 29.8604 12.4705 29.9411 12.4774C30.0214 12.4871 30.0948 12.5274 30.146 12.59C30.1973 12.6525 30.2224 12.7324 30.2161 12.8129C30.1307 13.4299 30.2663 14.0571 30.599 14.5836C30.9317 15.1101 31.44 15.5018 32.0339 15.6895C33.6911 16.3087 35.5077 16.3571 37.1956 15.827C38.6146 15.3787 39.2224 14.6829 39.1646 13.5692C39.1041 12.3344 38.8649 12.0869 37.0444 11.3692C36.2761 11.0936 35.4832 10.892 34.6766 10.767C33.7342 10.626 32.8113 10.3759 31.9266 10.0217C31.0604 9.6367 30.0484 9.01245 29.9136 7.5962C29.8471 7.0491 29.967 6.49556 30.254 6.02501C30.5409 5.55446 30.9781 5.19438 31.4949 5.00295C33.4318 4.20084 35.608 4.20084 37.5449 5.00295C38.127 5.2184 38.6251 5.61422 38.9664 6.13267C39.3077 6.65111 39.4745 7.26506 39.4424 7.88495C39.4375 7.9657 39.4021 8.04158 39.3434 8.09724C39.2847 8.15289 39.207 8.18415 39.1261 8.1847C39.0488 8.17709 38.9773 8.14056 38.9257 8.08243C38.8742 8.02429 38.8466 7.94885 38.8484 7.8712C38.8816 7.37546 38.7518 6.88244 38.4787 6.46736C38.2056 6.05228 37.8043 5.73791 37.3359 5.5722C36.448 5.20387 35.4962 5.01429 34.535 5.01429C33.5738 5.01429 32.622 5.20387 31.7341 5.5722C31.3416 5.71444 31.0092 5.98615 30.7918 6.34256C30.5743 6.69898 30.4848 7.11883 30.5379 7.53295C30.6231 8.40745 31.1154 8.9822 32.1879 9.45795C33.0263 9.79389 33.9013 10.0302 34.7949 10.162ZM44.9809 9.27568C45.5309 8.68718 46.1002 8.07943 47.0737 7.86218C48.7677 7.48268 50.2609 7.84293 51.3059 8.86868C52.3894 9.96868 52.8129 11.7342 52.4059 13.4832C51.8724 15.7684 50.5689 16.7997 48.1984 16.7997H47.9234C46.5099 16.7529 45.3604 16.1617 44.6592 15.1909C44.5223 16.0611 44.4835 16.9439 44.5437 17.8227L44.5455 17.8868V17.8868C44.5615 18.4418 44.5781 19.0162 44.5437 19.5854C44.5381 19.6635 44.5033 19.7366 44.4462 19.7901C44.3891 19.8437 44.3139 19.8737 44.2357 19.8742H44.2164C44.1759 19.8717 44.1363 19.8613 44.0999 19.8435C44.0635 19.8257 44.0309 19.8009 44.0041 19.7705C43.9772 19.7401 43.9567 19.7047 43.9436 19.6664C43.9305 19.628 43.925 19.5874 43.9277 19.5469C43.9624 18.9985 43.9452 18.4241 43.929 17.8869V17.8868V17.8868V17.8868V17.8868V17.8868V17.8868V17.8868V17.8868L43.9277 17.8419C43.8961 17.2263 43.8961 16.6095 43.9277 15.9939V13.1752C43.8864 12.7306 43.8864 12.2832 43.9277 11.8387V9.36369C43.9016 9.15274 43.9016 8.93938 43.9277 8.72843C43.9264 8.71379 43.9264 8.69907 43.9277 8.68444V8.23343C43.9179 8.18997 43.9179 8.1449 43.9277 8.10143C43.9437 8.045 43.9755 7.99432 44.0193 7.95534C44.0632 7.91637 44.1172 7.89072 44.1752 7.88143C44.2149 7.87476 44.2556 7.87602 44.2948 7.88515C44.3341 7.89427 44.3711 7.91108 44.4039 7.9346C44.4366 7.95812 44.4643 7.98789 44.4855 8.02219C44.5067 8.05649 44.5208 8.09464 44.5272 8.13444C44.5546 8.34898 44.5546 8.56614 44.5272 8.78068C44.4707 9.04138 44.5067 9.3136 44.6289 9.55068C44.6404 9.57164 44.6496 9.59376 44.6564 9.61668C44.7664 9.50393 44.8737 9.39118 44.9809 9.27568ZM47.9344 16.1809C50.1839 16.2497 51.2977 15.4329 51.7844 13.3457C52.1447 11.8029 51.7844 10.2547 50.8549 9.30593C49.9887 8.43418 48.6989 8.13443 47.2194 8.46443C46.4329 8.64043 45.9517 9.14919 45.4429 9.69919C45.3775 9.76315 45.3113 9.83402 45.2444 9.90572L45.2444 9.90572L45.2443 9.90575L45.2442 9.90589L45.2441 9.90598C45.1845 9.96984 45.1243 10.0343 45.0634 10.0952C45.0317 10.1273 44.9934 10.1521 44.9511 10.1678C44.9088 10.1835 44.8636 10.1897 44.8187 10.1859C44.5596 11.1767 44.4667 12.2035 44.5437 13.2247C44.7444 14.9874 46.0424 16.1204 47.9344 16.1809ZM120.103 8.05455C118.866 7.6283 117.051 7.25155 115.612 8.9043C115.533 8.99583 115.445 9.08104 115.358 9.16546L115.358 9.16559L115.321 9.2013L115.211 9.30855C115.197 9.27393 115.179 9.2415 115.156 9.2123C115.043 9.08305 115.051 8.9373 115.076 8.6623C115.105 8.4801 115.105 8.29451 115.076 8.1123C115.068 8.07262 115.052 8.03489 115.03 8.00132C115.007 7.96775 114.978 7.939 114.945 7.91674C114.911 7.89447 114.873 7.87915 114.833 7.87165C114.793 7.86415 114.753 7.86463 114.713 7.87305C114.673 7.88093 114.635 7.89659 114.602 7.91912C114.568 7.94164 114.539 7.9706 114.517 8.00432C114.494 8.03804 114.479 8.07587 114.471 8.11563C114.463 8.1554 114.463 8.19632 114.471 8.23605V8.56605C114.47 8.57885 114.47 8.59175 114.471 8.60455C114.446 8.77599 114.446 8.95011 114.471 9.12155L114.452 12.383V12.3308C114.439 12.7765 114.443 13.221 114.448 13.6627V13.6629V13.6631V13.6633V13.6635V13.6637V13.6639V13.6641C114.45 13.8841 114.452 14.1034 114.452 14.3218C114.466 15.0258 114.479 15.7573 114.452 16.4668C114.449 16.5488 114.478 16.6286 114.534 16.6889C114.59 16.7491 114.667 16.785 114.749 16.7886H114.763C114.842 16.7873 114.918 16.7559 114.975 16.7008C115.032 16.6456 115.066 16.5709 115.071 16.4915C115.089 16.0043 115.083 15.5121 115.077 15.0257V15.025V15.0244V15.0238V15.0232V15.0225V15.0219V15.0213C115.074 14.7817 115.071 14.5435 115.071 14.308C115.043 12.8395 115.016 11.3216 115.346 9.8613C115.39 9.8657 115.434 9.86033 115.476 9.8456C115.518 9.83087 115.556 9.80713 115.588 9.77605L115.731 9.6358C115.841 9.5313 115.956 9.4213 116.063 9.29755C116.982 8.2388 118.162 8.03255 119.886 8.6293C121.195 9.0803 121.429 10.0813 121.387 11.5498C121.356 12.629 121.362 13.7228 121.367 14.7877V14.7883L121.368 14.9873V16.4778C121.368 16.5595 121.4 16.6378 121.458 16.6956C121.516 16.7534 121.594 16.7858 121.676 16.7858C121.758 16.7858 121.836 16.7534 121.894 16.6956C121.952 16.6378 121.984 16.5595 121.984 16.4778V14.9818C121.984 14.7035 121.983 14.4226 121.982 14.1402V14.14V14.1398V14.1395V14.1393V14.1391V14.1388V14.1386C121.979 13.2858 121.976 12.4191 122.001 11.5663C122.061 10.1775 121.866 8.66505 120.103 8.05455ZM68.8865 11.2611C68.8893 11.7313 68.8728 12.2071 68.8563 12.6663C68.7752 13.8175 68.8316 14.9742 69.024 16.1121C69.0325 16.1518 69.033 16.1928 69.0255 16.2328C69.0181 16.2727 69.0028 16.3107 68.9805 16.3447C68.9583 16.3787 68.9296 16.408 68.896 16.4308C68.8624 16.4537 68.8246 16.4696 68.7848 16.4778H68.7215C68.6504 16.4774 68.5816 16.4526 68.5265 16.4076C68.4715 16.3625 68.4335 16.3 68.419 16.2303C68.219 15.0424 68.1618 13.8348 68.2485 12.6333C68.265 12.1878 68.2788 11.7176 68.2788 11.2583C68.2788 10.0181 68.0368 9.09407 66.9038 8.62932C66.3342 8.37426 65.7095 8.26701 65.0875 8.31748C64.4655 8.36795 63.8663 8.57452 63.3453 8.91808C63.0473 9.115 62.7708 9.34267 62.5203 9.59733L62.4578 9.65594C62.35 9.75721 62.2432 9.85754 62.1325 9.95207C62.0765 10.0016 62.0038 10.0281 61.929 10.0263V14.9488V15.3118C61.8813 15.6625 61.9249 16.0196 62.0555 16.3486C62.0913 16.4221 62.0969 16.5066 62.0712 16.5841C62.0455 16.6617 61.9906 16.7262 61.918 16.7638C61.8743 16.7851 61.8264 16.7964 61.7778 16.7968C61.7207 16.7964 61.6649 16.7803 61.6164 16.7502C61.5678 16.7201 61.5286 16.6773 61.5028 16.6263C61.3224 16.2045 61.256 15.7426 61.3103 15.2871V14.9516V9.95758V8.18383C61.3062 8.14075 61.3112 8.09729 61.3249 8.05625C61.3386 8.0152 61.3607 7.97747 61.3898 7.94547C61.419 7.91347 61.4545 7.8879 61.494 7.87041C61.5336 7.85291 61.5764 7.84387 61.6197 7.84387C61.6629 7.84387 61.7057 7.85291 61.7453 7.87041C61.7849 7.8879 61.8204 7.91347 61.8495 7.94547C61.8786 7.97747 61.9007 8.0152 61.9144 8.05625C61.9281 8.09729 61.9331 8.14075 61.929 8.18383V9.30308L62.094 9.15183C62.3725 8.87001 62.6783 8.61667 63.007 8.39558C63.6132 8.00266 64.3073 7.76633 65.0272 7.70777C65.7472 7.64922 66.4704 7.77027 67.132 8.06008C68.6693 8.69258 68.8865 10.0318 68.8865 11.2611ZM96.3943 7.90931C95.1458 7.40606 93.5865 7.80481 92.5168 8.90206L92.2115 9.20457L92.0575 9.35856C92.0376 9.38087 92.021 9.40587 92.008 9.43282C91.1308 8.29432 90.017 7.66732 88.8868 7.69207C87.872 7.69207 86.9205 8.24206 86.1753 9.19356C86.0913 9.03686 86.0688 8.8545 86.112 8.68206C86.1395 8.49976 86.1395 8.31437 86.112 8.13206C86.1039 8.09234 86.088 8.0546 86.0653 8.02101C86.0426 7.98742 86.0135 7.95863 85.9797 7.93629C85.9113 7.89116 85.8279 7.87503 85.7477 7.89144C85.6674 7.90785 85.597 7.95546 85.5519 8.02379C85.5068 8.09212 85.4906 8.17558 85.507 8.25581V8.58306V8.62432C85.4838 8.79587 85.4838 8.96976 85.507 9.14131L85.4823 12.5843L85.5015 12.4771V15.1418V16.4976C85.4975 16.5406 85.5024 16.5841 85.5161 16.6251C85.5298 16.6662 85.552 16.7039 85.5811 16.7359C85.6102 16.7679 85.6457 16.7935 85.6853 16.811C85.7248 16.8285 85.7676 16.8375 85.8109 16.8375C85.8542 16.8375 85.897 16.8285 85.9366 16.811C85.9761 16.7935 86.0116 16.7679 86.0407 16.7359C86.0699 16.7039 86.092 16.6662 86.1057 16.6251C86.1194 16.5841 86.1243 16.5406 86.1203 16.4976V15.1418V11.8886V11.6521C86.1203 10.9618 86.1203 10.3101 86.5163 9.75456C87.1653 8.83606 88.0068 8.32181 88.8923 8.30806C89.83 8.28331 90.7485 8.81957 91.502 9.78482V16.4893C91.498 16.5324 91.5029 16.5758 91.5166 16.6169C91.5303 16.6579 91.5525 16.6957 91.5816 16.7277C91.6107 16.7597 91.6462 16.7852 91.6858 16.8027C91.7253 16.8202 91.7681 16.8293 91.8114 16.8293C91.8547 16.8293 91.8975 16.8202 91.937 16.8027C91.9766 16.7852 92.0121 16.7597 92.0412 16.7277C92.0704 16.6957 92.0925 16.6579 92.1062 16.6169C92.1199 16.5758 92.1249 16.5324 92.1208 16.4893V9.83431C92.1788 9.86917 92.2467 9.88376 92.3139 9.8758C92.3811 9.86783 92.4438 9.83776 92.492 9.79031L92.6433 9.63907L92.7217 9.56102C92.7999 9.48331 92.8777 9.40598 92.954 9.32556C93.8533 8.40706 95.154 8.06606 96.1605 8.47581C97.2605 8.91581 97.7143 9.72431 97.6758 11.1021C97.64 12.3616 97.6483 13.6403 97.6565 14.8778V16.4921C97.6565 16.5737 97.689 16.6521 97.7467 16.7099C97.8045 16.7676 97.8828 16.8001 97.9645 16.8001C98.0462 16.8001 98.1246 16.7676 98.1823 16.7099C98.2401 16.6521 98.2725 16.5737 98.2725 16.4921V14.8751C98.2725 14.5809 98.2716 14.2842 98.2706 13.986V13.9856V13.9853V13.9849V13.9845V13.9841C98.2676 13.034 98.2646 12.0683 98.2918 11.1186C98.344 9.48782 97.7225 8.43731 96.3943 7.90931ZM139.043 4.58432C139.101 4.52664 139.18 4.49428 139.262 4.49428C139.344 4.49428 139.422 4.52673 139.48 4.58449C139.537 4.64225 139.57 4.72059 139.57 4.80228V16.4898C139.574 16.5329 139.569 16.5763 139.555 16.6174C139.542 16.6584 139.519 16.6961 139.49 16.7281C139.461 16.7601 139.426 16.7857 139.386 16.8032C139.347 16.8207 139.304 16.8297 139.26 16.8297C139.217 16.8297 139.174 16.8207 139.135 16.8032C139.095 16.7857 139.06 16.7601 139.031 16.7281C139.002 16.6961 138.979 16.6584 138.966 16.6174C138.952 16.5763 138.947 16.5329 138.951 16.4898V4.80228C138.952 4.72034 138.985 4.642 139.043 4.58432ZM107.758 7.88976C104.92 7.18301 102.943 8.6845 102.305 10.3813C101.43 12.6968 102.242 15.2983 104.15 16.302C104.819 16.6588 105.565 16.8475 106.323 16.852C107.797 16.852 109.213 16.093 110.244 14.652C110.268 14.6191 110.285 14.5819 110.294 14.5425C110.303 14.5031 110.305 14.4623 110.298 14.4223C110.292 14.3823 110.277 14.344 110.256 14.3096C110.235 14.2752 110.207 14.2453 110.174 14.2216C110.141 14.198 110.104 14.181 110.065 14.1718C110.025 14.1625 109.984 14.1611 109.944 14.1676C109.904 14.1741 109.866 14.1884 109.832 14.2097C109.797 14.231 109.767 14.2589 109.744 14.2918C108.396 16.1563 106.314 16.7255 104.439 15.7355C103.306 15.1388 102.629 13.871 102.574 12.4713H110.129C110.204 12.4704 110.277 12.442 110.333 12.3914C110.389 12.3408 110.425 12.2714 110.434 12.1963C110.728 10.0018 109.73 8.38201 107.758 7.88976ZM109.851 11.8745H102.588C102.628 11.4378 102.727 11.0085 102.882 10.5985C103.161 9.90831 103.645 9.32041 104.268 8.91456C104.892 8.5087 105.626 8.30454 106.369 8.32976C106.787 8.33169 107.203 8.38527 107.607 8.48926C109.191 8.88251 109.997 10.109 109.851 11.8745ZM57.0052 11.1997L57.0033 11.3176C56.9362 13.0335 56.9905 14.7519 57.1656 16.4601C57.1706 16.501 57.1674 16.5424 57.1562 16.582C57.145 16.6216 57.1261 16.6586 57.1005 16.6908C57.0749 16.7231 57.0432 16.7499 57.0072 16.7698C56.9711 16.7897 56.9315 16.8022 56.8906 16.8066H56.8521C56.7762 16.8059 56.7031 16.7776 56.6464 16.727C56.5898 16.6764 56.5534 16.607 56.5441 16.5316C56.3686 14.7958 56.3162 13.0498 56.3873 11.3066C56.4038 10.2864 56.4203 9.23036 56.3873 8.19636C56.3848 8.11467 56.4148 8.03532 56.4707 7.97575C56.5267 7.91618 56.604 7.88128 56.6857 7.87873C56.7674 7.87618 56.8468 7.90618 56.9063 7.96214C56.9659 8.01809 57.0008 8.09542 57.0033 8.17711C57.0377 9.18483 57.0212 10.2078 57.0052 11.1996V11.1997ZM76.8329 7.72506H76.7971C76.7599 7.71813 76.7217 7.71813 76.6844 7.72506C74.4844 7.96981 73.0846 9.26507 72.7519 11.3743C72.4191 13.4836 73.0984 15.1033 74.6961 16.1428C75.4302 16.628 76.2913 16.8853 77.1711 16.8826C77.9043 16.8744 78.6283 16.7182 79.2996 16.4233C80.6939 15.8321 81.4996 14.5726 81.6976 12.6806C81.7809 11.9882 81.7051 11.2859 81.4759 10.6273C81.2466 9.9687 80.8701 9.3711 80.3749 8.88006C79.9118 8.42991 79.3519 8.09177 78.7379 7.89156C78.1239 7.69136 77.4723 7.6344 76.8329 7.72506ZM81.0706 12.6173C80.8946 14.2921 80.2319 15.3508 79.0439 15.8541C77.5726 16.4783 76.2251 16.4041 75.0344 15.6258C73.6346 14.7156 73.0709 13.3158 73.3624 11.4678C73.6539 9.61981 74.8254 8.55281 76.7531 8.33831C76.7677 8.3412 76.7826 8.3412 76.7971 8.33831C76.8361 8.34689 76.8764 8.34689 76.9154 8.33831C77.4613 8.26053 78.0178 8.30882 78.5422 8.47948C79.0665 8.65013 79.5448 8.93862 79.9404 9.32282C80.3664 9.7502 80.6896 10.2689 80.8854 10.8397C81.0812 11.4105 81.1446 12.0184 81.0706 12.6173ZM134.474 9.34988V11.4839C134.534 11.9538 134.538 12.4293 134.485 12.9001V15.0341C134.518 15.3081 134.518 15.5851 134.485 15.8591C134.467 16.0613 134.467 16.2647 134.485 16.4669C134.489 16.5075 134.486 16.5487 134.474 16.588C134.463 16.6273 134.444 16.6639 134.419 16.6959C134.393 16.7278 134.361 16.7544 134.326 16.7741C134.29 16.7938 134.25 16.8062 134.21 16.8106H134.174C134.098 16.8104 134.025 16.7822 133.969 16.7315C133.912 16.6807 133.877 16.611 133.869 16.5356C133.847 16.2969 133.847 16.0566 133.869 15.8179C133.909 15.5243 133.887 15.2255 133.805 14.9406C133.214 15.8454 132.323 16.2936 131.498 16.6071C131.004 16.7907 130.48 16.8839 129.953 16.8821C129.007 16.8822 128.092 16.5514 127.365 15.9471C126.086 14.8994 125.492 12.6939 125.99 10.8184C126.176 10.026 126.596 9.3079 127.196 8.75685C127.795 8.20579 128.545 7.84717 129.35 7.72738C129.393 7.71771 129.437 7.71771 129.48 7.72738H129.518C131.033 7.54038 132.444 8.01063 133.368 9.01713C133.513 9.17551 133.645 9.34568 133.761 9.52589C133.878 9.2192 133.912 8.88736 133.86 8.56339C133.838 8.32464 133.838 8.08438 133.86 7.84564C133.865 7.80537 133.878 7.76642 133.897 7.73102C133.917 7.69561 133.944 7.66444 133.976 7.63929C134.007 7.61414 134.044 7.59549 134.083 7.58442C134.122 7.57335 134.163 7.57007 134.203 7.57476C134.243 7.57946 134.282 7.59203 134.317 7.61178C134.353 7.63153 134.384 7.65806 134.409 7.68985C134.434 7.72164 134.453 7.75808 134.464 7.79707C134.475 7.83607 134.478 7.87687 134.474 7.91713C134.456 8.11933 134.456 8.3227 134.474 8.52489C134.507 8.7989 134.507 9.07587 134.474 9.34988ZM131.286 16.0241C132.78 15.4659 133.5 14.6959 133.775 13.3676V13.3621C134.102 11.7781 133.794 10.3839 132.925 9.44064C132.125 8.56614 130.945 8.17839 129.592 8.34064C129.555 8.34893 129.517 8.34893 129.48 8.34064H129.455C128.766 8.44018 128.123 8.74589 127.611 9.21759C127.099 9.68928 126.742 10.3049 126.587 10.9834C126.147 12.6389 126.658 14.5694 127.758 15.4741C128.241 15.8772 128.825 16.1413 129.446 16.2382C130.068 16.3351 130.704 16.2611 131.286 16.0241Z" fill="white"/>
<path d="M0.448329 11.6395L0.428711 0.836643C0.452141 0.62371 0.53131 0.42072 0.658228 0.248146C0.831382 0.119139 1.03338 0.0342985 1.24672 0.000976562L11.6435 0.0382486C13.5947 0.279068 15.4515 1.01664 17.0361 2.18038C19.5863 4.093 21.0693 6.86482 21.0693 6.86482C21.0693 6.86482 21.5283 7.74364 21.2988 7.879C21.0693 8.01435 20.6691 7.59064 20.6691 7.59064C20.6691 7.59064 20.0002 7.15122 18.374 6.65492C16.7477 6.15862 7.58092 6.30378 7.58092 6.30378C7.58092 6.30378 7.065 6.26651 6.93161 6.64904C6.85358 6.89139 6.85358 7.15212 6.93161 7.39447C6.93161 7.39447 7.04538 7.70049 7.62015 7.70049L18.2308 7.68087C18.976 7.6976 19.6977 7.94502 20.2964 8.38903C20.5884 8.59534 20.8348 8.85965 21.0201 9.16544C21.2053 9.47123 21.3256 9.81194 21.3733 10.1663L21.4047 21.4478C21.374 21.5845 21.3061 21.7101 21.2086 21.8107C21.0555 21.9637 20.5769 21.9833 20.5769 21.9833L11.1609 22.001C11.1609 22.001 7.81435 21.6204 5.72911 20.3375C3.64387 19.0546 1.77245 16.783 1.0074 15.4628C0.242356 14.1426 0.56799 13.9719 0.56799 13.9719C0.56799 13.9719 0.701382 13.7993 1.18003 14.1681C2.0549 14.7929 3.05928 15.2126 4.11859 15.3961C5.34267 15.5687 14.6547 15.4726 14.6547 15.4726C14.6547 15.4726 14.9783 15.5687 15.0941 15.0802C15.2098 14.5918 15.0548 14.3917 15.0548 14.3917C15.0548 14.3917 14.9587 14.1955 14.5585 14.1955H3.43005C3.43005 14.1955 0.91128 14.1249 0.448329 11.6395Z" fill="white"/>
</svg>

<svg xmlns="http://www.w3.org/2000/svg" width="140" height="22" fill="none"><path fill="#fff" fill-rule="evenodd" d="M34.795 10.162c.843.132 1.672.345 2.475.635 1.925.762 2.417 1.166 2.519 2.734.102 2.084-1.785 2.68-2.404 2.876a8.588 8.588 0 0 1-5.563-.146 3.255 3.255 0 0 1-2.216-3.509.311.311 0 0 1 .335-.275.313.313 0 0 1 .275.336 2.638 2.638 0 0 0 1.818 2.877 7.946 7.946 0 0 0 5.162.137c1.419-.448 2.026-1.144 1.969-2.258-.06-1.235-.3-1.482-2.12-2.2a12.833 12.833 0 0 0-2.368-.602 12.293 12.293 0 0 1-2.75-.745c-.867-.385-1.879-1.01-2.013-2.426a2.45 2.45 0 0 1 1.58-2.593 7.906 7.906 0 0 1 6.05 0 2.912 2.912 0 0 1 1.898 2.882.32.32 0 0 1-.316.3.308.308 0 0 1-.278-.314 2.277 2.277 0 0 0-1.512-2.299 7.31 7.31 0 0 0-5.602 0 1.837 1.837 0 0 0-1.196 1.96c.085.875.577 1.45 1.65 1.926.838.336 1.713.572 2.607.704Zm10.186-.886c.55-.589 1.12-1.197 2.093-1.414 1.694-.38 3.187-.02 4.232 1.007 1.083 1.1 1.507 2.865 1.1 4.614-.534 2.285-1.837 3.317-4.208 3.317h-.275c-1.413-.047-2.563-.638-3.264-1.61-.137.871-.175 1.754-.115 2.633l.002.064c.016.555.032 1.13-.002 1.698a.31.31 0 0 1-.308.29h-.02a.308.308 0 0 1-.288-.328c.034-.549.017-1.123.001-1.66l-.001-.045a18.024 18.024 0 0 1 0-1.848v-2.819a7.224 7.224 0 0 1 0-1.336V9.364a2.587 2.587 0 0 1 0-.636.249.249 0 0 1 0-.044v-.45a.3.3 0 0 1 0-.133.308.308 0 0 1 .6.033 2.55 2.55 0 0 1 0 .647c-.057.26-.021.533.1.77.012.02.022.043.028.066.11-.113.218-.226.325-.341Zm2.953 6.905c2.25.069 3.364-.748 3.85-2.835.36-1.543 0-3.091-.93-4.04-.865-.872-2.155-1.172-3.635-.842-.786.176-1.267.685-1.776 1.235a6.387 6.387 0 0 0-.199.207l-.18.19a.309.309 0 0 1-.245.09 9.259 9.259 0 0 0-.275 3.039c.2 1.762 1.498 2.895 3.39 2.956Zm72.169-8.126c-1.237-.427-3.052-.803-4.491.85-.079.09-.167.176-.254.26l-.037.036-.11.108a.392.392 0 0 0-.055-.097c-.113-.129-.105-.275-.08-.55a1.75 1.75 0 0 0 0-.55.318.318 0 0 0-.046-.11.308.308 0 0 0-.428-.082.302.302 0 0 0-.131.317v.33a.247.247 0 0 0 0 .038 1.791 1.791 0 0 0 0 .517l-.019 3.261v-.052c-.013.446-.009.89-.004 1.332v.001c.002.22.004.44.004.658.014.704.027 1.435 0 2.145a.309.309 0 0 0 .297.322h.014a.313.313 0 0 0 .308-.298c.018-.487.012-.979.006-1.465v-.004c-.003-.24-.006-.479-.006-.714-.028-1.469-.055-2.986.275-4.447a.3.3 0 0 0 .242-.085l.143-.14c.11-.105.225-.215.332-.338.919-1.06 2.099-1.265 3.823-.669 1.309.451 1.543 1.452 1.501 2.92-.031 1.08-.025 2.174-.02 3.239l.001.2v1.49a.307.307 0 0 0 .308.308.308.308 0 0 0 .308-.308v-1.496l-.002-.842v-.001c-.003-.853-.006-1.72.019-2.573.06-1.389-.135-2.901-1.898-3.511ZM68.887 11.26c.002.47-.014.946-.03 1.405a14.54 14.54 0 0 0 .167 3.446.307.307 0 0 1-.24.366h-.063a.311.311 0 0 1-.302-.248 15.114 15.114 0 0 1-.17-3.597c.016-.445.03-.915.03-1.375 0-1.24-.242-2.164-1.375-2.629a3.71 3.71 0 0 0-3.559.29 5.105 5.105 0 0 0-.825.678l-.062.059a9.3 9.3 0 0 1-.325.296.296.296 0 0 1-.204.074v5.286c-.048.35-.004.708.127 1.037a.313.313 0 0 1-.138.415.31.31 0 0 1-.415-.137 2.618 2.618 0 0 1-.193-1.34V8.184a.31.31 0 1 1 .619 0v1.12l.165-.152a5.96 5.96 0 0 1 .913-.756 4.365 4.365 0 0 1 4.125-.336c1.537.633 1.754 1.972 1.754 3.201ZM96.394 7.91c-1.248-.503-2.808-.104-3.877.993l-.305.303-.154.154a.32.32 0 0 0-.05.074c-.877-1.139-1.991-1.766-3.121-1.74-1.015 0-1.966.55-2.712 1.5a.715.715 0 0 1-.063-.51 1.844 1.844 0 0 0 0-.55.308.308 0 1 0-.605.123v.368a1.929 1.929 0 0 0 0 .517l-.025 3.443.02-.107v4.021a.312.312 0 0 0 .604.127.312.312 0 0 0 .014-.127v-4.846c0-.69 0-1.342.396-1.897.65-.919 1.49-1.433 2.376-1.447.938-.025 1.857.512 2.61 1.477v6.704a.312.312 0 0 0 .31.34.31.31 0 0 0 .309-.34V9.834a.305.305 0 0 0 .371-.044l.151-.15.079-.079c.078-.078.156-.155.232-.235.9-.919 2.2-1.26 3.207-.85 1.1.44 1.553 1.248 1.515 2.626-.036 1.26-.028 2.538-.02 3.776v1.614a.308.308 0 0 0 .616 0v-1.617l-.001-.889v-.001c-.003-.951-.006-1.917.02-2.866.053-1.631-.569-2.682-1.897-3.21Zm42.649-3.325a.31.31 0 0 1 .437 0c.057.058.09.137.09.218V16.49a.307.307 0 0 1-.08.238.305.305 0 0 1-.23.102.307.307 0 0 1-.229-.102.307.307 0 0 1-.08-.238V4.802a.313.313 0 0 1 .092-.218ZM107.758 7.89c-2.838-.707-4.815.795-5.453 2.491-.875 2.316-.063 4.917 1.845 5.921a4.677 4.677 0 0 0 2.173.55c1.474 0 2.89-.759 3.921-2.2a.299.299 0 0 0 .054-.23.304.304 0 0 0-.124-.2.31.31 0 0 0-.342-.012.293.293 0 0 0-.088.082c-1.348 1.864-3.43 2.434-5.305 1.444-1.133-.597-1.81-1.865-1.865-3.265h7.555a.31.31 0 0 0 .305-.275c.294-2.194-.704-3.814-2.676-4.306Zm2.093 3.984h-7.263c.04-.436.139-.866.294-1.276a3.629 3.629 0 0 1 3.487-2.269c.418.003.834.056 1.238.16 1.584.394 2.39 1.62 2.244 3.385ZM57.005 11.2l-.002.118a36.46 36.46 0 0 0 .163 5.142.31.31 0 0 1-.275.347h-.039a.313.313 0 0 1-.308-.275 36.966 36.966 0 0 1-.157-5.225 65.15 65.15 0 0 0 0-3.11.309.309 0 0 1 .616-.02 60.44 60.44 0 0 1 .002 3.023Zm19.828-3.475h-.036a.308.308 0 0 0-.113 0c-2.2.245-3.6 1.54-3.932 3.65-.333 2.109.346 3.728 1.944 4.768a4.464 4.464 0 0 0 2.475.74 5.444 5.444 0 0 0 2.129-.46c1.394-.59 2.2-1.85 2.398-3.742a4.582 4.582 0 0 0-1.323-3.8 4.23 4.23 0 0 0-3.542-1.156Zm4.238 4.892c-.176 1.675-.84 2.734-2.027 3.237-1.471.624-2.819.55-4.01-.228-1.4-.91-1.963-2.31-1.672-4.158.292-1.848 1.463-2.915 3.391-3.13.015.003.03.003.044 0 .04.009.08.009.118 0a3.611 3.611 0 0 1 3.025.985 3.976 3.976 0 0 1 1.13 3.294Zm53.403-3.267v2.134c.06.47.064.945.011 1.416v2.134a3.45 3.45 0 0 1 0 .825 3.427 3.427 0 0 0 0 .608.313.313 0 0 1-.159.307.315.315 0 0 1-.116.037h-.036a.306.306 0 0 1-.305-.275 3.91 3.91 0 0 1 0-.718c.04-.294.018-.592-.064-.877-.591.904-1.482 1.353-2.307 1.666a4.394 4.394 0 0 1-1.545.275c-.946 0-1.861-.33-2.588-.935-1.279-1.048-1.873-3.253-1.375-5.129a4.065 4.065 0 0 1 3.36-3.091.295.295 0 0 1 .13 0h.038c1.515-.187 2.926.284 3.85 1.29.145.159.277.329.393.509.117-.307.151-.639.099-.963a3.911 3.911 0 0 1 0-.717.312.312 0 0 1 .457-.234.3.3 0 0 1 .147.185c.011.04.014.08.01.12a3.427 3.427 0 0 0 0 .608 3.45 3.45 0 0 1 0 .825Zm-3.188 6.674c1.494-.558 2.214-1.328 2.489-2.656v-.006c.327-1.584.019-2.978-.85-3.921-.8-.875-1.98-1.263-3.333-1.1a.255.255 0 0 1-.112 0h-.025a3.45 3.45 0 0 0-2.868 2.642c-.44 1.656.071 3.586 1.171 4.491a3.47 3.47 0 0 0 3.528.55Z" clip-rule="evenodd"/><path fill="#fff" d="M.448 11.64.428.836C.453.624.532.42.659.248c.173-.129.375-.214.589-.247l10.396.037c1.952.241 3.808.979 5.393 2.142 2.55 1.913 4.033 4.685 4.033 4.685s.46.879.23 1.014-.63-.288-.63-.288-.669-.44-2.295-.936c-1.626-.496-10.793-.351-10.793-.351s-.516-.037-.65.345a1.216 1.216 0 0 0 0 .745s.114.306.69.306l10.61-.02a3.603 3.603 0 0 1 2.065.709 2.601 2.601 0 0 1 1.077 1.777l.032 11.282a.761.761 0 0 1-.196.363c-.154.153-.632.172-.632.172l-9.416.018s-3.347-.38-5.432-1.664c-2.085-1.282-3.957-3.554-4.722-4.874-.765-1.32-.439-1.491-.439-1.491s.133-.173.612.196a7.159 7.159 0 0 0 2.939 1.228c1.224.173 10.536.077 10.536.077s.323.096.44-.393c.115-.488-.04-.688-.04-.688s-.096-.197-.496-.197H3.43S.911 14.125.448 11.64Z"/></svg>
